!!!OTL: DORT OBEN AUF DEM BERGE
!!!ARE: Europa, Mitteleuropa, Deutschland, Kassel
!!!SCT: K2223
!!!YEM: Copyright 1995, estate of Helmut Schaffrath.
**kern
*ICvox
*Ivox
*M2/4
*k[b-]
*F:
{8c
=1
8f
8f
8f
8f
=2
4f
8c}
{8c
=3
8a
8a
8a
8a
=4
4a
8r}
{8f
=5
8cc
8cc
8cc
8cc
=6
8cc
8a
8f}
{8f
=7
8g
8g
8c
8c
=8
4f
8r}
{16cc
16cc
=9
8cc
8b-
8a
16cc
16cc
=10
8cc
8b-
8a}
{16a
16a
=11
8g
8g
8g
8g
=12
4f
8r}
==
!!!AGN: Kinder - Lied, Reigen, Tanz - Spiel, Brautwerbung
!!!ONB: ESAC (Essen Associative Code) Database: KINDER
!!!AMT: simple duple
!!!AIN: vox
!!!EED: Helmut Schaffrath
!!!EEV: 1.0
*-
